X: 1
T: British Grenadiers
Z: 2006 John Chambers <jc:trillian.mit.edu>
M: 4/4
L: 1/4
K: G
D \
| "G"GD GA | Bc/B/ "D7"AB/c/ | "G"dG "D7"B/A/G/F/ | "G"G3 "D7"D \
| "G"GD GA | Bc/B/ "D7"AB/c/ | "G"dG "D7"B/A/G/F/ | "G"G3 ||
B/c/ \
| "G"d>e dc | Bc dd | "C"ee d/c/B/A/ | "G"G2 "D7"F>D \
| "G"GF/G/ "D7"A G/A/ | "G"BA/B/ "C"cB/c/ | "G"dG "D7"B/A/G/F/ | "G"G3 |]
%%center 23SCD/British_Grenadiers_16G.abc

%%sep 1 1 500
%%sep 1 1 500

